icons/mobile/24/svg/night-mode-24.svg

<svg width="24" height="24" viewBox="0 0 24 24" fill="none" xmlns="http://www.w3.org/2000/svg">
<path fill-rule="evenodd" clip-rule="evenodd" d="M10.5108 3.44959C11.0307 3.30261 11.5748 3.43898 11.9668 3.81385C12.3618 4.19185 12.5215 4.734 12.3965 5.266C12.2715 5.79997 12.208 6.34516 12.208 6.88514C12.2081 10.3371 14.6639 13.3094 18.0489 13.9554C18.5369 14.0644 19.016 14.1222 19.501 14.1312C20.0449 14.1402 20.5317 14.4289 20.8018 14.9047C21.0697 15.3756 21.0678 15.9367 20.7969 16.4047C20.4559 16.9947 20.0471 17.5473 19.5801 18.0453C19.5691 18.0593 19.5569 18.0723 19.545 18.0863C17.829 19.9662 15.468 20.9993 12.9541 21.0004C12.6352 21.0004 12.3142 20.9826 11.9912 20.9486C7.67338 20.4996 4.24293 16.8843 4.01273 12.5375C3.78973 8.32951 6.46183 4.59162 10.5108 3.44959ZM10.6104 5.25135C7.56637 6.28777 5.58799 9.19138 5.7598 12.4457C5.9418 15.8827 8.75892 18.8543 12.1729 19.2094C14.4588 19.4473 16.6551 18.6253 18.2061 16.9554C18.2241 16.9335 18.2418 16.911 18.2618 16.891C18.5638 16.575 18.8353 16.2306 19.0743 15.8656C18.6064 15.8366 18.1433 15.7712 17.6934 15.6722C13.5114 14.8732 10.4571 11.1761 10.4571 6.88611C10.4571 6.34125 10.5084 5.79221 10.6104 5.25135Z" fill="black"/>
</svg>

<!-- This Source Code Form is subject to the terms of the Mozilla Public
   - License, v. 2.0. If a copy of the MPL was not distributed with this
   - file, You can obtain one at http://mozilla.org/MPL/2.0/. -->
<svg xmlns="http://www.w3.org/2000/svg" width="24" height="24" fill="none" viewBox="0 0 24 24">
    <path fill="#000" fill-rule="evenodd" d="M10.51 3.45a1.5 1.5 0 0 1 1.457.364c.395.378.554.92.43 1.452a7 7 0 0 0-.189 1.62 7.2 7.2 0 0 0 5.84 7.07c.489.108.968.166 1.453.175.544.01 1.03.298 1.3.774a1.49 1.49 0 0 1-.004 1.5 9 9 0 0 1-1.217 1.64l-.035.041A8.86 8.86 0 0 1 12.955 21q-.479 0-.964-.051c-4.318-.45-7.748-4.065-7.978-8.412C3.79 8.33 6.462 4.592 10.51 3.45m.1 1.801a7.16 7.16 0 0 0-4.85 7.195c.182 3.437 2.999 6.408 6.413 6.763 2.286.238 4.482-.584 6.033-2.254q.027-.033.056-.064.453-.476.812-1.025a9 9 0 0 1-1.38-.194c-4.183-.799-7.237-4.496-7.237-8.786 0-.545.051-1.094.153-1.635" clip-rule="evenodd" />
</svg>
